assets/img/components/alert.svg

<svg width="272" height="144" viewBox="0 0 272 144" fill="none" xmlns="http://www.w3.org/2000/svg">
<rect y="0.350098" width="272" height="143" rx="8" fill="#EDEDED"/>
<rect x="21" y="12.3501" width="235" height="50" fill="white"/>
<rect x="21" y="76.3501" width="235" height="50" fill="white"/>
<mask id="mask0_17_228" style="mask-type:alpha" maskUnits="userSpaceOnUse" x="26" y="24" width="18" height="19">
<path d="M43.6578 24.4502H26.1001V42.0078H43.6578V24.4502Z" fill="#D9D9D9"/>
</mask>
<g mask="url(#mask0_17_228)">
<path d="M34.8792 36.8869C35.0864 36.8869 35.2602 36.8168 35.4004 36.6765C35.5407 36.5363 35.6107 36.3625 35.6107 36.1553V33.229C35.6107 33.0218 35.5407 32.848 35.4004 32.7078C35.2602 32.5675 35.0864 32.4974 34.8792 32.4974C34.6719 32.4974 34.4982 32.5675 34.3579 32.7078C34.2177 32.848 34.1476 33.0218 34.1476 33.229V36.1553C34.1476 36.3625 34.2177 36.5363 34.3579 36.6765C34.4982 36.8168 34.6719 36.8869 34.8792 36.8869ZM34.8792 31.0343C35.0864 31.0343 35.2602 30.9642 35.4004 30.824C35.5407 30.6837 35.6107 30.51 35.6107 30.3027C35.6107 30.0955 35.5407 29.9217 35.4004 29.7815C35.2602 29.6413 35.0864 29.5712 34.8792 29.5712C34.6719 29.5712 34.4982 29.6413 34.3579 29.7815C34.2177 29.9217 34.1476 30.0955 34.1476 30.3027C34.1476 30.51 34.2177 30.6837 34.3579 30.824C34.4982 30.9642 34.6719 31.0343 34.8792 31.0343ZM34.8792 40.5447C33.8672 40.5447 32.9161 40.3527 32.026 39.9686C31.1359 39.5845 30.3617 39.0633 29.7033 38.4049C29.0449 37.7465 28.5237 36.9722 28.1396 36.0821C27.7555 35.192 27.5635 34.241 27.5635 33.229C27.5635 32.217 27.7555 31.266 28.1396 30.3759C28.5237 29.4858 29.0449 28.7116 29.7033 28.0532C30.3617 27.3948 31.1359 26.8735 32.026 26.4894C32.9161 26.1054 33.8672 25.9133 34.8792 25.9133C35.8911 25.9133 36.8422 26.1054 37.7323 26.4894C38.6224 26.8735 39.3966 27.3948 40.055 28.0532C40.7134 28.7116 41.2347 29.4858 41.6187 30.3759C42.0028 31.266 42.1949 32.217 42.1949 33.229C42.1949 34.241 42.0028 35.192 41.6187 36.0821C41.2347 36.9722 40.7134 37.7465 40.055 38.4049C39.3966 39.0633 38.6224 39.5845 37.7323 39.9686C36.8422 40.3527 35.8911 40.5447 34.8792 40.5447ZM34.8792 39.0816C36.513 39.0816 37.8969 38.5146 39.0308 37.3807C40.1648 36.2467 40.7317 34.8628 40.7317 33.229C40.7317 31.5952 40.1648 30.2113 39.0308 29.0774C37.8969 27.9434 36.513 27.3765 34.8792 27.3765C33.2454 27.3765 31.8614 27.9434 30.7275 29.0774C29.5936 30.2113 29.0266 31.5952 29.0266 33.229C29.0266 34.8628 29.5936 36.2467 30.7275 37.3807C31.8614 38.5146 33.2454 39.0816 34.8792 39.0816Z" fill="#154973"/>
</g>
<rect x="51" y="30.3752" width="112" height="6" rx="3" fill="#5C8AB0"/>
<path d="M20.8399 62.3501C18.1669 62.3501 16 60.315 16 57.8046V16.8956C16 14.3852 18.1669 12.3501 20.8399 12.3501C20.8399 12.3501 20.84 13.3676 20.84 14.6228V60.0774C20.84 61.3325 20.8399 62.3501 20.8399 62.3501Z" fill="#154973"/>
<rect x="51" y="48.5132" width="36" height="4" rx="2" fill="#BEC0C1"/>
<path d="M20.8399 126.35C18.1669 126.35 16 124.315 16 121.805V80.8956C16 78.3852 18.1669 76.3501 20.8399 76.3501C20.8399 76.3501 20.84 77.3676 20.84 78.6228V124.077C20.84 125.333 20.8399 126.35 20.8399 126.35Z" fill="#457AA5"/>
<rect x="51" y="96.3501" width="166" height="6" rx="3" fill="#5C8AB0"/>
<rect x="51" y="111.35" width="62" height="4" rx="2" fill="#BEC0C1"/>
<path d="M28.0436 106.1C27.9061 106.1 27.7811 106.066 27.6686 105.997C27.5561 105.928 27.4686 105.838 27.4061 105.725C27.3436 105.613 27.3092 105.491 27.303 105.359C27.2967 105.228 27.3311 105.1 27.4061 104.975L34.3436 92.9751C34.4186 92.8501 34.5155 92.7563 34.6342 92.6938C34.753 92.6313 34.8748 92.6001 34.9998 92.6001C35.1248 92.6001 35.2467 92.6313 35.3655 92.6938C35.4842 92.7563 35.5811 92.8501 35.6561 92.9751L42.5936 104.975C42.6686 105.1 42.703 105.228 42.6967 105.359C42.6905 105.491 42.6561 105.613 42.5936 105.725C42.5311 105.838 42.4436 105.928 42.3311 105.997C42.2186 106.066 42.0936 106.1 41.9561 106.1H28.0436ZM29.3373 104.6H40.6623L34.9998 94.8501L29.3373 104.6ZM34.9998 103.85C35.2123 103.85 35.3905 103.778 35.5342 103.634C35.678 103.491 35.7498 103.313 35.7498 103.1C35.7498 102.888 35.678 102.709 35.5342 102.566C35.3905 102.422 35.2123 102.35 34.9998 102.35C34.7873 102.35 34.6092 102.422 34.4655 102.566C34.3217 102.709 34.2498 102.888 34.2498 103.1C34.2498 103.313 34.3217 103.491 34.4655 103.634C34.6092 103.778 34.7873 103.85 34.9998 103.85ZM34.9998 101.6C35.2123 101.6 35.3905 101.528 35.5342 101.384C35.678 101.241 35.7498 101.063 35.7498 100.85V98.6001C35.7498 98.3876 35.678 98.2095 35.5342 98.0657C35.3905 97.922 35.2123 97.8501 34.9998 97.8501C34.7873 97.8501 34.6092 97.922 34.4655 98.0657C34.3217 98.2095 34.2498 98.3876 34.2498 98.6001V100.85C34.2498 101.063 34.3217 101.241 34.4655 101.384C34.6092 101.528 34.7873 101.6 34.9998 101.6Z" fill="#1B1B1B"/>
</svg>

<svg xmlns="http://www.w3.org/2000/svg" width="272" height="144" fill="none" viewBox="0 0 272 144"><rect width="272" height="143" y=".35" fill="#ededed" rx="8"/><path fill="#fff" d="M21 12.35h235v50H21zM21 76.35h235v50H21z"/><mask id="a" width="18" height="19" x="26" y="24" maskUnits="userSpaceOnUse" style="mask-type:alpha"><path fill="#d9d9d9" d="M43.658 24.45H26.1v17.558h17.558z"/></mask><g mask="url(#a)"><path fill="#154973" d="M34.88 36.887q.31 0 .52-.21t.21-.522V33.23a.7.7 0 0 0-.21-.521.7.7 0 0 0-.52-.21.7.7 0 0 0-.522.21.7.7 0 0 0-.21.521v2.926q0 .31.21.521.21.21.521.21m0-5.853q.31 0 .52-.21t.21-.521a.7.7 0 0 0-.21-.521.7.7 0 0 0-.52-.21.7.7 0 0 0-.522.21.7.7 0 0 0-.21.52q0 .312.21.522t.521.21m0 9.51a7.1 7.1 0 0 1-2.854-.575 7.4 7.4 0 0 1-2.323-1.564 7.4 7.4 0 0 1-1.563-2.323 7.1 7.1 0 0 1-.576-2.853q0-1.518.576-2.853a7.4 7.4 0 0 1 1.563-2.323 7.4 7.4 0 0 1 2.323-1.564 7.1 7.1 0 0 1 2.853-.576q1.518 0 2.853.576t2.323 1.564a7.4 7.4 0 0 1 1.564 2.323q.576 1.335.576 2.853a7.1 7.1 0 0 1-.576 2.853 7.4 7.4 0 0 1-1.564 2.323 7.4 7.4 0 0 1-2.323 1.564 7.1 7.1 0 0 1-2.853.576m0-1.462q2.45 0 4.15-1.701 1.702-1.701 1.702-4.152t-1.701-4.152q-1.701-1.7-4.152-1.7t-4.151 1.7-1.701 4.152q0 2.451 1.7 4.152 1.701 1.7 4.152 1.7"/></g><rect width="112" height="6" x="51" y="30.375" fill="#5c8ab0" rx="3"/><path fill="#154973" d="M20.84 62.35c-2.673 0-4.84-2.035-4.84-4.545v-40.91c0-2.51 2.167-4.545 4.84-4.545v50"/><rect width="36" height="4" x="51" y="48.513" fill="#bec0c1" rx="2"/><path fill="#457aa5" d="M20.84 126.35c-2.673 0-4.84-2.035-4.84-4.545v-40.91c0-2.51 2.167-4.545 4.84-4.545v50"/><rect width="166" height="6" x="51" y="96.35" fill="#5c8ab0" rx="3"/><rect width="62" height="4" x="51" y="111.35" fill="#bec0c1" rx="2"/><path fill="#1b1b1b" d="M28.044 106.1a.728.728 0 0 1-.638-.375.8.8 0 0 1-.103-.366.67.67 0 0 1 .103-.384l6.938-12a.74.74 0 0 1 .29-.281A.8.8 0 0 1 35 92.6q.188 0 .365.094a.74.74 0 0 1 .291.281l6.938 12q.112.188.103.384a.8.8 0 0 1-.103.366.73.73 0 0 1-.638.375zm1.293-1.5h11.325L35 94.85zm5.663-.75q.318 0 .534-.216a.72.72 0 0 0 .216-.534.72.72 0 0 0-.216-.534.73.73 0 0 0-.534-.216.73.73 0 0 0-.535.216.72.72 0 0 0-.215.534q0 .32.215.534a.73.73 0 0 0 .535.216m0-2.25q.318 0 .534-.216a.72.72 0 0 0 .216-.534V98.6a.73.73 0 0 0-.216-.534.73.73 0 0 0-.534-.216.73.73 0 0 0-.535.216.73.73 0 0 0-.215.534v2.25q0 .32.215.534a.73.73 0 0 0 .535.216"/></svg>
